layouts/icon-pack/weapon_claw.svg

<?xml version="1.0" encoding="UTF-8"?>
<svg width="1200pt" height="1200pt" version="1.1" viewBox="0 0 1200 1200" xmlns="http://www.w3.org/2000/svg">
 <g fill="#fff">
  <path d="m473.09 490.59 35.695 5.25c4.6367 0.68359 9.3672-0.11719 13.516-2.2969 4.1523-2.1758 7.5-5.6172 9.5703-9.8203 71.555-146.51 297.66-357.94 348.42-404.39 1.8984-1.7227 2.5273-4.4453 1.5781-6.8242-0.94922-2.3828-3.2812-3.9219-5.8438-3.8633-33.68 0.96094-80.789 25.992-80.789 25.992-87.727 47.25-234.16 173.44-273.7 208.12-6.2969 5.5156-9.7461 13.598-9.375 21.961 3.5391 81.422-26.297 127.66-45.422 148.71-2.5664 2.8555-3.3359 6.8945-2.0039 10.496 1.332 3.5977 4.5508 6.1641 8.3555 6.6602z"/>
  <path d="m954.7 297.09c18.422-30.258 36.984-60.938 51.562-85.031 3.1797-5.2344 2.3711-11.965-1.9609-16.297-4.332-4.332-11.062-5.1406-16.297-1.9609-24.07 14.508-54.773 33.07-85.031 51.562-87.07 53.477-164.37 121.43-228.56 200.93-34.43 42.305-67.688 89.742-76.57 124.01-2.3398 8.9922 0.25 18.555 6.8086 25.141 6.5586 6.582 16.109 9.207 25.113 6.8984 34.266-8.8828 81.703-42.188 124.01-76.57 79.512-64.227 147.46-141.57 200.93-228.68z"/>
  <path d="m1120.7 319.71c-46.453 50.789-257.81 276.87-404.39 348.42-4.2031 2.0703-7.6445 5.418-9.8203 9.5703-2.1797 4.1484-2.9805 8.8789-2.2969 13.516l5.25 35.695c0.53516 3.7852 3.1133 6.9688 6.7031 8.2734 3.5938 1.3047 7.6133 0.51953 10.453-2.0391 21.094-19.125 67.289-48.961 148.71-45.422 8.3438 0.40234 16.422-3.0039 21.961-9.2578 34.641-39.539 160.88-185.98 208.12-273.7 0 0 25.031-47.109 25.992-80.789 0.058594-2.5625-1.4805-4.8945-3.8633-5.8438-2.3789-0.94922-5.1016-0.32031-6.8242 1.5781z"/>
  <path d="m564.66 635.34c-64.289-64.266-116.88-99.352-146.67-116.41-6.3828-3.6406-14.027-4.3359-20.961-1.9023-6.9336 2.4336-12.473 7.75-15.18 14.582-3.6797 9.1641-7.8047 18.492-12.281 27.914-2.3086 4.8359-2.6875 10.367-1.0625 15.473 1.6211 5.1094 5.1289 9.4023 9.8047 12.02 48.898 27.508 93.871 61.469 133.71 100.97 39.492 39.805 73.453 84.738 100.97 133.59 2.6172 4.6758 6.9102 8.1836 12.02 9.8047 5.1055 1.625 10.637 1.2461 15.473-1.0625 9.375-4.4766 18.75-8.6016 27.914-12.281 6.832-2.707 12.148-8.2461 14.582-15.18s1.7383-14.578-1.9023-20.961c-17.062-29.555-52.148-82.266-116.41-146.55z"/>
  <path d="m290.34 1131.3c6.5 0.57031 12.922-1.7539 17.555-6.3516l34.477-34.477c0.87109-0.93359 1.5977-1.9922 2.1562-3.1406 1.668-3.3867 1.8008-7.3281 0.36328-10.82-1.4336-3.4922-4.2969-6.1992-7.8633-7.4375-29.227-10.148-70.523-33.234-121.69-84.375-51.164-51.141-74.25-92.461-84.375-121.69-1.2383-3.5664-3.9453-6.4297-7.4375-7.8633-3.4922-1.4375-7.4336-1.3047-10.82 0.36328-1.1484 0.55859-2.207 1.2852-3.1406 2.1562l-34.57 34.453c-4.5977 4.6328-6.9219 11.055-6.3516 17.555 6.0469 72.656 77.344 144.33 77.344 144.33s71.789 71.25 144.35 77.297z"/>
  <path d="m372.3 1014.8c5.7656-7.1133 12.27-13.594 19.406-19.336 23.18-18.938 92.859-74.438 169.83-121.71 6.8945-4.2852 11.84-11.102 13.77-18.984 1.9336-7.8867 0.69922-16.215-3.4336-23.203-24.621-41.793-54.332-80.367-88.453-114.84-34.465-34.145-73.043-63.875-114.84-88.5-6.9883-4.1367-15.32-5.3711-23.207-3.4336-7.8906 1.9375-14.703 6.8906-18.98 13.793-47.297 77.016-102.84 146.72-121.88 169.9-5.7617 7.0391-12.25 13.449-19.359 19.125-2.0859 1.6875-4.1719 3.2344-6.2109 4.6875-3.793 2.7188-6.5547 6.6445-7.832 11.137-1.2773 4.4883-0.99609 9.2812 0.80078 13.59 9.375 23.016 29.414 56.531 71.93 99.023 42.516 42.492 76.031 62.625 98.953 72.047 4.3086 1.8008 9.1016 2.0859 13.594 0.80859s8.4141-4.043 11.133-7.8398c1.5469-2.0859 3.0938-4.1719 4.7812-6.2578z"/>
 </g>
</svg>

<?xml version="1.0" encoding="UTF-8" standalone="no"?>
<!DOCTYPE svg PUBLIC "-//W3C//DTD SVG 1.1//EN" "http://www.w3.org/Graphics/SVG/1.1/DTD/svg11.dtd">
<svg width="100%" height="100%" viewBox="0 0 512 512" version="1.1" xmlns="http://www.w3.org/2000/svg" xmlns:xlink="http://www.w3.org/1999/xlink" xml:space="preserve" xmlns:serif="http://www.serif.com/" style="fill-rule:evenodd;clip-rule:evenodd;stroke-linejoin:round;stroke-miterlimit:2;">
    <g transform="matrix(1,0,0,1,-68.5586,-68.6437)">
        <g transform="matrix(0.481735,0,0,0.481735,35.5315,35.5756)">
            <path d="M473.09,490.59L508.785,495.84C513.422,496.524 518.152,495.723 522.301,493.543C526.453,491.367 529.801,487.926 531.871,483.723C603.426,337.213 829.531,125.783 880.291,79.333C882.19,77.61 882.819,74.888 881.869,72.509C880.92,70.126 878.588,68.587 876.026,68.645C842.346,69.606 795.237,94.637 795.237,94.637C707.51,141.887 561.077,268.077 521.537,302.757C515.24,308.273 511.79,316.355 512.162,324.718C515.701,406.14 485.865,452.378 466.74,473.428C464.173,476.284 463.404,480.323 464.736,483.924C466.068,487.522 469.286,490.088 473.091,490.585L473.09,490.59Z" style="fill:white;fill-rule:nonzero;"/>
            <path d="M954.7,297.09C973.122,266.832 991.684,236.152 1006.26,212.059C1009.44,206.825 1008.63,200.094 1004.3,195.762C999.969,191.43 993.239,190.621 988.004,193.801C963.934,208.309 933.231,226.871 902.973,245.363C815.903,298.84 738.603,366.793 674.413,446.293C639.983,488.598 606.725,536.035 597.843,570.303C595.503,579.295 598.093,588.858 604.652,595.444C611.21,602.026 620.761,604.651 629.765,602.343C664.031,593.46 711.468,560.155 753.775,525.773C833.287,461.546 901.235,384.203 954.705,297.093L954.7,297.09Z" style="fill:white;fill-rule:nonzero;"/>
            <path d="M1120.7,319.71C1074.25,370.499 862.89,596.58 716.31,668.13C712.107,670.2 708.666,673.548 706.49,677.7C704.31,681.849 703.509,686.579 704.193,691.216L709.443,726.911C709.978,730.697 712.556,733.88 716.146,735.185C719.74,736.489 723.759,735.704 726.599,733.146C747.693,714.021 793.888,684.185 875.309,687.724C883.653,688.126 891.731,684.72 897.27,678.466C931.911,638.927 1058.15,492.486 1105.39,404.766C1105.39,404.766 1130.42,357.657 1131.38,323.977C1131.44,321.414 1129.9,319.082 1127.52,318.133C1125.14,317.184 1122.42,317.813 1120.69,319.711L1120.7,319.71Z" style="fill:white;fill-rule:nonzero;"/>
            <path d="M564.66,635.34C500.371,571.074 447.78,535.988 417.99,518.93C411.607,515.289 403.963,514.594 397.029,517.028C390.095,519.461 384.556,524.778 381.849,531.61C378.169,540.774 374.044,550.102 369.568,559.524C367.259,564.36 366.881,569.891 368.506,574.997C370.127,580.106 373.634,584.399 378.31,587.017C427.208,614.525 472.181,648.486 512.02,687.987C551.512,727.792 585.473,772.725 612.99,821.577C615.607,826.253 619.9,829.76 625.01,831.381C630.116,833.006 635.647,832.628 640.483,830.319C649.858,825.842 659.233,821.717 668.397,818.038C675.229,815.331 680.545,809.792 682.979,802.858C685.413,795.924 684.718,788.28 681.077,781.897C664.015,752.342 628.929,699.631 564.667,635.347L564.66,635.34Z" style="fill:white;fill-rule:nonzero;"/>
            <path d="M290.34,1131.3C296.84,1131.87 303.262,1129.55 307.895,1124.95L342.372,1090.47C343.243,1089.54 343.97,1088.48 344.528,1087.33C346.196,1083.94 346.329,1080 344.891,1076.51C343.458,1073.02 340.595,1070.31 337.028,1069.07C307.801,1058.92 266.505,1035.84 215.338,984.698C164.174,933.557 141.088,892.237 130.963,863.008C129.725,859.442 127.018,856.579 123.526,855.145C120.033,853.708 116.092,853.84 112.706,855.508C111.557,856.067 110.499,856.793 109.565,857.664L74.995,892.117C70.397,896.75 68.073,903.172 68.643,909.672C74.69,982.328 145.987,1054 145.987,1054C145.987,1054 217.776,1125.25 290.337,1131.3L290.34,1131.3Z" style="fill:white;fill-rule:nonzero;"/>
            <path d="M372.3,1014.8C378.066,1007.69 384.57,1001.21 391.706,995.464C414.886,976.526 484.565,921.026 561.536,873.754C568.431,869.469 573.376,862.652 575.306,854.77C577.24,846.883 576.005,838.555 571.872,831.567C547.251,789.774 517.54,751.2 483.419,716.727C448.954,682.582 410.376,652.852 368.579,628.227C361.591,624.09 353.259,622.856 345.372,624.793C337.482,626.731 330.669,631.684 326.392,638.586C279.095,715.602 223.552,785.306 204.512,808.486C198.751,815.525 192.262,821.935 185.153,827.611C183.068,829.299 180.982,830.846 178.943,832.299C175.15,835.018 172.388,838.943 171.111,843.436C169.833,847.924 170.114,852.717 171.911,857.026C181.286,880.042 201.325,913.557 243.841,956.049C286.357,998.541 319.872,1018.67 342.794,1028.1C347.103,1029.9 351.896,1030.18 356.388,1028.9C360.881,1027.63 364.802,1024.86 367.521,1021.07C369.068,1018.98 370.615,1016.89 372.302,1014.81L372.3,1014.8Z" style="fill:white;fill-rule:nonzero;"/>
        </g>
    </g>
</svg>
